!!!OTL: 52. Der deutsche Mann.
!!!COM: H. G. Nägeli
!!!ODT: 1816
!!!ARE: Europa, Mitteleuropa, Deutschland
!!!SCT: B0052
!!!TXL: @@DE
!!!YEM: Copyright 1995, estate of Helmut Schaffrath.
**kern	**text
*ICvox	*
*Ivox	*
*M4/4	*
*met(c)	*
*clefG2	*
*k[b-e-]	*
*B-:	*
=1	=1
!LO:TX:a:t=Langſam und kräftig.	!
{4B-	1._Wer
8.B-	iſt
16d	ein
4f	Mann?
4b-	Wer
=2	=2
4ee-	be-
4b-	-ten
4.g}	kann
{8cc	und
=3	=3
4a	Gott
4f	dem
4b-	Herrn
4b-	ver-
=4	=4
2.a}	-traut;
{4a	wenn
=5	=5
4.dd	Al-
8cc	-les
4b-	bricht:
4dd	er
=6	=6
4.ff	ʒa-
8ee-	-get
4dd}	nicht,
{4cc	dem
=7	=7
4b-	From-
8.b-L	-men
16ccJ	.
4dd	nim-
4cc	-mer
=8	=8
2.b-	graut.
4r}	.
==	==
!!!AGN: Kriegs -, Sieges -, Soldaten - Lied
!!!GTL: Kriegs- und Siegeslieder
!!!ONB: ESAC (Essen Associative Code) Database: BOEHME
!!!AMT: simple quadruple
!!!AIN: vox
!!!EED: Helmut Schaffrath
!!!EEV: 1.0
!!@@COMMENT:"Gedicht von E. M. Arndt, 1813. Ʒuerſt im: Katechismus für den deutſchen Kriegs- und
!!Wehrmann" (von Arndt), 1813, S. 125."
!!@@END:
!!Text: E. M. Arndt
!!!URL-scan: https://archive.org/details/BoehmeVtLieder1895/page/n67/mode/2up
!!!ENC: Anna Maria Matuszewska
!!!EEV: 2024/14/06
*-	*-
